X: 22
M: C|
L: 1/8
K: G
d>^cd>f g>e=c>A | G>FG>B D2E>F | G>FG>A B>AB>c | d>^cd>g A2B>=c |
d>^cd>f g>e=c>A | G>FG>B D2E>F | G>ed>c B>AG>F | G2B2 G2 :|
|: F>G |\
d>^cd>f g>e=c>A | G>FG>B D2E>F | G>ed>c B>AG>F | G2B2 G2 H:|

